X: 18312
T: Humours Of Tullycrine, The
R: hornpipe
M: 4/4
K: Adorian
ed|:c2 AB c3 d|eaag (3efe dB|BccA ~B3 c|~d3 e dBGB|
A^GAB c3 d|eaag (3efe dB|cAAc dBGB|1 AzAG A2 ed:|AzAG A2 (3Bcd||
|:ea (3aaa aged|ea (3aaa aged|eg (3ggg ge dg|(3efg fa gedB|
A^GAB c3 d|eaag e//f/e dB|cAAc dBGB|1 AzAG A2 (3Bcd:|AzAG A2 ed||

